art/standard/gamepad/luna/righttrigger.svg

<svg width="100px" height="100px" preserveAspectRatio="none" version="1.1" viewBox="0 0 100 100" xmlns="http://www.w3.org/2000/svg">
 <path d="m15.903 37.15v-6.4c0.6-10.933 6.5833-17.083 17.95-18.45h43.25c5.241 1.5673 7.5577 6.234 6.95 14-2.3667 14.167-2.3667 28.933 0 44.3 0.8 4.5667-0.5 9.1833-3.9 13.85-3.4 3.1333-7.7833 5.1167-13.15 5.95-6.9348 1.0904-13.135 0.50703-18.6-1.75-5.4-2.4333-9.25-6.45-11.55-12.05-0.3-0.7-0.61667-1.4-0.95-2.1-3.382-6.4339-7.132-10.901-11.25-13.4-4.146-2.4686-6.546-5.152-7.2-8.05-0.01133-0.05-0.01133-0.1 0-0.15-0.7-2.6667-1.15-5.4-1.35-8.2-0.2-2.4333-0.26667-4.95-0.2-7.55" fill="#313131"/>
 <path d="m40.603 46.55c-1.346-6.3988-1.6129-12.938-1.8764-19.449-0.1796-2.5657-0.64357-6.1461 2.1945-7.4304 2.5023-1.456 5.4053-0.84323 8.1449-0.97053h24.587c2.6233 0.43863 4.6154 2.9459 3.8742 5.6117-0.92399 8.4012-2.2668 16.807-1.8484 25.288 0.08528 7.0639 0.88663 14.085 1.7602 21.085 0.46112 3.4777 0.21302 7.5394-2.7762 9.8945-4.6616 3.9607-11.838 4.1581-17.003 1.0879-2.7762-2.2516-4.5506-5.4762-6.6189-8.342-5.6468-7.9427-8.6378-17.286-10.438-26.775z" fill="#4f4f4f" stop-color="#000000" stroke="#626262" stroke-linecap="round" stroke-linejoin="round" stroke-width="4" style="-inkscape-stroke:none;font-variation-settings:normal"/>
 <path d="m48.403 88.675q-8.1-3.675-11.55-12.075-0.45-1.05-0.95-2.1-5.073-9.6508-11.275-13.375-6.1939-3.7279-7.175-8.075-0.01699-0.075-0.025-0.15-1.025-4-1.325-8.2-0.3-3.65-0.2-7.55v-6.4q0.9-16.4 17.95-18.45h43.25q7.8615 2.351 6.95 14-3.55 21.25 0 44.3 1.2 6.85-3.9 13.85-5.1 4.7-13.15 5.95-10.402 1.6355-18.6-1.725z" fill="none" stroke="#1b1b1b" stroke-linecap="round" stroke-linejoin="round" stroke-width="5"/>
 <path d="m59.1 25.5v2.9h4.25v11.95h3.25v-11.95h4.25v-2.9h-11.75m-0.5 4.5q0-1.3-0.45-2.2-0.45-0.85-1.2-1.35-0.75-0.55-1.8-0.75-1-0.2-2.15-0.2h-5.75v14.85h3.3v-5.95h1.6l3.1 5.95h3.95l-3.8-6.3q1.6-0.25 2.4-1.4 0.8-1.1 0.8-2.65m-5.9-1.75q0.4 0 0.9 0.05 0.45 0.05 0.8 0.25t0.6 0.5q0.2 0.35 0.2 0.9 0 0.65-0.25 0.95-0.25 0.35-0.65 0.5t-0.9 0.2-0.95 0.05h-1.9v-3.4h2.15z" fill="#999"/>
</svg>

<svg xmlns="http://www.w3.org/2000/svg" version="1.1" xmlns:xlink="http://www.w3.org/1999/xlink" preserveAspectRatio="none" x="0px" y="0px" width="100px" height="100px" viewBox="0 0 100 100">
<defs/>

<g id="Luna">
<g>
<g>
<g>
<path fill="#313131" stroke="none" d="
M 84 70.6
Q 80.45 47.55 84 26.3 84.9 14.65 77.05 12.3
L 33.8 12.3
Q 16.75 14.35 15.85 30.75
L 15.85 37.15
Q 15.75 41.05 16.05 44.7 16.35 48.9 17.35 52.9 17.4 53 17.4 53.05 18.4 57.4 24.55 61.15 30.8 64.85 35.85 74.5 36.35 75.55 36.8 76.6 40.25 85 48.35 88.7 56.55 92.05 66.95 90.4 75 89.15 80.1 84.45 85.2 77.45 84 70.6
M 76.8 20.55
Q 77.75 22 77.55 23.6 77.25 26.45 76.9 29.25 76.3 34.15 75.85 39.05 75.6 41.55 75.6 44.1 75.55 48.1 75.7 52.1 75.85 55.9 76.15 59.7 76.45 63.3 76.95 66.9 77.45 70.25 77.55 73.65 77.65 78.95 73.05 81.7 69.15 84.05 64.65 83.75 62.35 83.6 60.15 82.85 57.65 82.15 56 80.2 54.35 78.2 52.85 76.05 50.95 73.35 49.2 70.55 46.7 66.55 44.95 62.2 43.2 57.75 42.05 53.2 41.2 49.9 40.55 46.55 39.9 43.2 39.5 39.85 39.05 36.4 38.95 33 38.8 28.8 38.55 26 38.35 23.2 39.05 21.4 39.75 19.6 43.7 18.7
L 73.6 18.7
Q 76.05 19.5 76.8 20.55 Z"/>

<path fill="#4F4F4F" stroke="none" d="
M 77.55 23.6
Q 77.75 22 76.8 20.55 76.05 19.5 73.6 18.7
L 43.7 18.7
Q 39.75 19.6 39.05 21.4 38.35 23.2 38.55 26 38.8 28.8 38.95 33 39.05 36.4 39.5 39.85 39.9 43.2 40.55 46.55 41.2 49.9 42.05 53.2 43.2 57.75 44.95 62.2 46.7 66.55 49.2 70.55 50.95 73.35 52.85 76.05 54.35 78.2 56 80.2 57.65 82.15 60.15 82.85 62.35 83.6 64.65 83.75 69.15 84.05 73.05 81.7 77.65 78.95 77.55 73.65 77.45 70.25 76.95 66.9 76.45 63.3 76.15 59.7 75.85 55.9 75.7 52.1 75.55 48.1 75.6 44.1 75.6 41.55 75.85 39.05 76.3 34.15 76.9 29.25 77.25 26.45 77.55 23.6
M 58.15 27.8
Q 58.6 28.7 58.6 30 58.6 31.55 57.8 32.65 57 33.8 55.4 34.05
L 59.2 40.35 55.25 40.35 52.15 34.4 50.55 34.4 50.55 40.35 47.25 40.35 47.25 25.5 53 25.5
Q 54.15 25.5 55.15 25.7 56.2 25.9 56.95 26.45 57.7 26.95 58.15 27.8
M 59.1 28.4
L 59.1 25.5 70.85 25.5 70.85 28.4 66.6 28.4 66.6 40.35 63.35 40.35 63.35 28.4 59.1 28.4
M 53.6 28.3
Q 53.1 28.25 52.7 28.25
L 50.55 28.25 50.55 31.65 52.45 31.65
Q 52.9 31.65 53.4 31.6 53.9 31.55 54.3 31.4 54.7 31.25 54.95 30.9 55.2 30.6 55.2 29.95 55.2 29.4 55 29.05 54.75 28.75 54.4 28.55 54.05 28.35 53.6 28.3 Z"/>

<path fill="#999999" stroke="none" d="
M 59.1 25.5
L 59.1 28.4 63.35 28.4 63.35 40.35 66.6 40.35 66.6 28.4 70.85 28.4 70.85 25.5 59.1 25.5
M 58.6 30
Q 58.6 28.7 58.15 27.8 57.7 26.95 56.95 26.45 56.2 25.9 55.15 25.7 54.15 25.5 53 25.5
L 47.25 25.5 47.25 40.35 50.55 40.35 50.55 34.4 52.15 34.4 55.25 40.35 59.2 40.35 55.4 34.05
Q 57 33.8 57.8 32.65 58.6 31.55 58.6 30
M 52.7 28.25
Q 53.1 28.25 53.6 28.3 54.05 28.35 54.4 28.55 54.75 28.75 55 29.05 55.2 29.4 55.2 29.95 55.2 30.6 54.95 30.9 54.7 31.25 54.3 31.4 53.9 31.55 53.4 31.6 52.9 31.65 52.45 31.65
L 50.55 31.65 50.55 28.25 52.7 28.25 Z"/>
</g>
</g>

<g>
<path stroke="#626262" stroke-width="4" stroke-linejoin="round" stroke-linecap="round" fill="none" d="
M 43.7 18.7
Q 39.75 19.6 39.05 21.4 38.35 23.2 38.55 26 38.8 28.8 38.95 33 39.05 36.4 39.5 39.85 39.9 43.2 40.55 46.55 41.2 49.9 42.05 53.2 43.2 57.75 44.95 62.2 46.7 66.55 49.2 70.55 50.95 73.35 52.85 76.05 54.35 78.2 56 80.2 57.65 82.15 60.15 82.85 62.35 83.6 64.65 83.75 69.15 84.05 73.05 81.7 77.65 78.95 77.55 73.65 77.45 70.25 76.95 66.9 76.45 63.3 76.15 59.7 75.85 55.9 75.7 52.1 75.55 48.1 75.6 44.1 75.6 41.55 75.85 39.05 76.3 34.15 76.9 29.25 77.25 26.45 77.55 23.6 77.75 22 76.8 20.55 76.05 19.5 73.6 18.7
L 43.7 18.7 Z"/>
</g>

<g>
<path stroke="#1B1B1B" stroke-width="5" stroke-linejoin="round" stroke-linecap="round" fill="none" d="
M 84 26.3
Q 80.45 47.55 84 70.6 85.2 77.45 80.1 84.45 75 89.15 66.95 90.4 56.55 92.05 48.35 88.7 40.25 85 36.8 76.6 36.35 75.55 35.85 74.5 30.8 64.85 24.55 61.15 18.4 57.4 17.4 53.05 17.4 53 17.35 52.9 16.35 48.9 16.05 44.7 15.75 41.05 15.85 37.15
L 15.85 30.75
Q 16.75 14.35 33.8 12.3
L 77.05 12.3
Q 84.9 14.65 84 26.3 Z"/>
</g>
</g>
</g>
</svg>
